icons/1_Primary/Xero.svg

<svg xmlns="http://www.w3.org/2000/svg" width="1024" height="1024" fill="none">
   <g clip-path="url(#a)">
      <path fill="#9ABEFF" d="M512 1024c282.77 0 512-229.23 512-512S794.77 0 512 0 0 229.23 0 512s229.23 512 512 512Z"/>
      <path fill="#fff" d="M512 256c-141.4 0-256 114.62-256 256s114.59 256 256 256 256-114.63 256-256-114.65-256-256-256Zm-92.81 313.14a8.36 8.36 0 0 1-6-2.65l-42.94-43.28-43.17 43.49a8.323 8.323 0 0 1-9.119 1.778 8.317 8.317 0 0 1-5.081-7.778 8.317 8.317 0 0 1 2.57-6l43-43.44-43-43.39a8.477 8.477 0 0 1-2.51-6 8.317 8.317 0 0 1 5.079-7.768 8.325 8.325 0 0 1 9.111 1.768l43.18 43.39 43-43.31a8.244 8.244 0 0 1 5.92-2.51 8.392 8.392 0 0 1 8.36 8.4 8.234 8.234 0 0 1-2.44 5.89l-43 43.53 43 43.52a8.406 8.406 0 0 1 1.81 9.139 8.404 8.404 0 0 1-7.73 5.201l-.04.02Zm117.61-56.82c-2.91 3.62-7.6 5.69-13.2 5.81H443v.62c.412 2.188.98 4.343 1.7 6.45 5 13 17.73 27 38.54 27.19a40 40 0 0 0 18.84-4.83 42.386 42.386 0 0 0 11.07-9c.95-1.1 1.77-2.2 2.56-3.27l.29-.29c2.41-3.17 5.07-3.83 6.88-3.83a8.84 8.84 0 0 1 5.36 1.93 8.127 8.127 0 0 1 3 5.55 9.847 9.847 0 0 1-2.08 7.26l-.32.34c-4.91 6.23-9.57 10.69-14.64 14a56.877 56.877 0 0 1-17.27 7.4 54.171 54.171 0 0 1-13.93 1.88 56.493 56.493 0 0 1-6.73-.41 58.314 58.314 0 0 1-48.9-43.42 57.413 57.413 0 0 1-1.73-14 58.724 58.724 0 0 1 24.27-47.7 57.546 57.546 0 0 1 64.16-1.73c13.26 8.45 22.08 21.58 25.51 38a14.669 14.669 0 0 1-2.78 12.05ZM589.13 471c-16.58 2.07-18.23 10.14-18.23 29.45V560a8.3 8.3 0 1 1-16.6 0v-96.92a8.29 8.29 0 0 1 16.19-2.57 32.782 32.782 0 0 1 19.6-6.4h2.36a8.402 8.402 0 0 1 8.36 8.41c0 4.58-3.54 8-8.42 8.21-1.091.03-2.179.12-3.26.27Zm122.53 39.68c0 32-25.77 58-57.44 58-31.67 0-57.47-26-57.47-58s25.78-58 57.47-58c31.69 0 57.44 26.01 57.44 57.97v.03Zm-189.18-9.39h-78.83a40.6 40.6 0 0 1 78.83 0Zm91.45 9.39a40.263 40.263 0 0 0 11.566 28.885 40.28 40.28 0 0 0 28.699 12.02 40.28 40.28 0 0 0 28.699-12.02 40.283 40.283 0 0 0 11.566-28.885c0-22.42-18.05-40.67-40.24-40.67a40.518 40.518 0 0 0-40.29 40.64v.03Zm54.93 0a14.662 14.662 0 0 1-9.13 13.467 14.659 14.659 0 0 1-19.057-19.226 14.656 14.656 0 0 1 13.547-9.011 14.717 14.717 0 0 1 14.64 14.74v.03Z"/>
   </g>
   <defs>
      <clipPath id="a">
         <path fill="#fff" d="M0 0h1024v1024H0z"/>
      </clipPath>
   </defs>
</svg>

<svg width="1024" height="1024" viewBox="0 0 1024 1024" fill="none" xmlns="http://www.w3.org/2000/svg">
<g clip-path="url(#clip0_2_3978)">
<path d="M512 1024C794.77 1024 1024 794.77 1024 512C1024 229.23 794.77 0 512 0C229.23 0 0 229.23 0 512C0 794.77 229.23 1024 512 1024Z" fill="#9ABEFF"/>
<path d="M512 256C370.6 256 256 370.62 256 512C256 653.38 370.59 768 512 768C653.41 768 768 653.37 768 512C768 370.63 653.35 256 512 256ZM419.19 569.14C418.063 569.126 416.95 568.884 415.919 568.429C414.888 567.973 413.959 567.314 413.19 566.49L370.25 523.21L327.08 566.7C325.909 567.87 324.416 568.664 322.792 568.981C321.167 569.297 319.485 569.123 317.961 568.478C316.436 567.834 315.139 566.75 314.234 565.365C313.328 563.979 312.857 562.355 312.88 560.7C312.881 559.578 313.11 558.468 313.551 557.437C313.993 556.406 314.639 555.475 315.45 554.7L358.45 511.26L315.45 467.87C314.657 467.085 314.027 466.15 313.596 465.121C313.165 464.091 312.942 462.986 312.94 461.87C312.919 460.217 313.391 458.596 314.296 457.212C315.201 455.829 316.497 454.746 318.019 454.102C319.542 453.459 321.221 453.283 322.844 453.598C324.467 453.913 325.959 454.704 327.13 455.87L370.31 499.26L413.31 455.95C414.078 455.157 414.998 454.526 416.015 454.095C417.032 453.663 418.125 453.441 419.23 453.44C421.452 453.448 423.58 454.337 425.147 455.911C426.714 457.486 427.593 459.618 427.59 461.84C427.595 462.935 427.382 464.019 426.964 465.031C426.545 466.042 425.928 466.96 425.15 467.73L382.15 511.26L425.15 554.78C426.319 555.955 427.114 557.45 427.436 559.076C427.758 560.702 427.593 562.387 426.96 563.919C426.328 565.452 425.256 566.763 423.881 567.688C422.506 568.613 420.888 569.111 419.23 569.12L419.19 569.14ZM536.8 512.32C533.89 515.94 529.2 518.01 523.6 518.13H443V518.75C443.412 520.938 443.98 523.093 444.7 525.2C449.7 538.2 462.43 552.2 483.24 552.39C489.822 552.355 496.293 550.695 502.08 547.56C506.252 545.207 509.995 542.164 513.15 538.56C514.1 537.46 514.92 536.36 515.71 535.29L516 535C518.41 531.83 521.07 531.17 522.88 531.17C524.831 531.204 526.715 531.883 528.24 533.1C529.085 533.779 529.785 534.619 530.3 535.572C530.815 536.525 531.135 537.572 531.24 538.65C531.388 539.937 531.28 541.241 530.923 542.487C530.566 543.733 529.967 544.896 529.16 545.91L528.84 546.25C523.93 552.48 519.27 556.94 514.2 560.25C508.893 563.657 503.057 566.158 496.93 567.65C492.388 568.879 487.705 569.511 483 569.53C480.751 569.527 478.503 569.391 476.27 569.12C464.713 567.599 453.877 562.65 445.16 554.91C436.444 547.171 430.247 536.996 427.37 525.7C426.22 521.122 425.639 516.42 425.64 511.7C425.617 502.395 427.805 493.218 432.025 484.924C436.244 476.631 442.375 469.459 449.91 464C459.223 457.372 470.3 453.668 481.726 453.36C493.153 453.052 504.413 456.154 514.07 462.27C527.33 470.72 536.15 483.85 539.58 500.27C540.022 502.36 540.002 504.521 539.522 506.602C539.042 508.684 538.113 510.635 536.8 512.32ZM589.13 471C572.55 473.07 570.9 481.14 570.9 500.45V560C570.9 562.201 570.026 564.312 568.469 565.869C566.912 567.426 564.801 568.3 562.6 568.3C560.399 568.3 558.288 567.426 556.731 565.869C555.174 564.312 554.3 562.201 554.3 560V463.08C554.286 461.097 554.984 459.174 556.266 457.661C557.549 456.148 559.331 455.146 561.29 454.835C563.249 454.524 565.254 454.925 566.942 455.967C568.63 457.008 569.889 458.62 570.49 460.51C576.165 456.324 583.038 454.08 590.09 454.11H592.45C594.673 454.121 596.8 455.012 598.367 456.588C599.934 458.164 600.813 460.297 600.81 462.52C600.81 467.1 597.27 470.52 592.39 470.73C591.299 470.76 590.211 470.85 589.13 471ZM711.66 510.68C711.66 542.68 685.89 568.68 654.22 568.68C622.55 568.68 596.75 542.68 596.75 510.68C596.75 478.68 622.53 452.68 654.22 452.68C685.91 452.68 711.66 478.69 711.66 510.65V510.68ZM522.48 501.29H443.65C445.826 492.481 450.891 484.655 458.035 479.061C465.179 473.467 473.991 470.427 483.065 470.427C492.139 470.427 500.951 473.467 508.095 479.061C515.239 484.655 520.304 492.481 522.48 501.29ZM613.93 510.68C613.846 516.021 614.825 521.326 616.811 526.284C618.797 531.243 621.749 535.758 625.496 539.565C629.244 543.371 633.711 546.395 638.638 548.458C643.565 550.522 648.853 551.585 654.195 551.585C659.537 551.585 664.825 550.522 669.752 548.458C674.679 546.395 679.146 543.371 682.894 539.565C686.641 535.758 689.593 531.243 691.579 526.284C693.565 521.326 694.544 516.021 694.46 510.68C694.46 488.26 676.41 470.01 654.22 470.01C643.492 470.071 633.227 474.383 625.674 482.002C618.121 489.62 613.898 499.922 613.93 510.65V510.68ZM668.86 510.68C668.838 513.576 667.96 516.4 666.335 518.797C664.71 521.193 662.411 523.055 659.73 524.147C657.048 525.239 654.103 525.513 651.266 524.933C648.429 524.354 645.827 522.947 643.789 520.89C641.75 518.834 640.366 516.22 639.812 513.378C639.257 510.535 639.557 507.593 640.673 504.921C641.788 502.249 643.67 499.967 646.081 498.363C648.492 496.76 651.324 495.906 654.22 495.91C658.114 495.931 661.84 497.494 664.584 500.257C667.328 503.019 668.865 506.756 668.86 510.65V510.68Z" fill="white"/>
</g>
<defs>
<clipPath id="clip0_2_3978">
<rect width="1024" height="1024" fill="white"/>
</clipPath>
</defs>
</svg>
